X:1
T:The Dew Fairy
T:The Dew Fairy
T:No. 2 from "The Hour Glass" H.148 
T:Frank Bridge
C:Frank Bridge
%%score { ( 1 3 ) | ( 2 4 ) }
L:1/8
Q:3/8=15
M:6/8
K:A
V:1 treble nm="Piano" snm="Pno."
V:3 treble 
V:2 treble 
V:4 treble 
V:1
!p!"^Allegretto moderato e rubato""^dolce e grazioso" g2- g/ g/ g2- g/ g/[Q:3/8=40] | %1
 g2- (3g/(f/g/ f2-) f/ c/ | e2- e/ e/ e2- e/ e/ | e2-[Q:3/8=25] (3e/[Q:3/8=40](c/e/ c2-) c/ G/ | %4
!<(! c2- c/!<)!!mp! (c/!>(! f2-) f/ (f/!>)! |!p! c2-) c/ (c/ e2-) e/ e/ | %6
[Q:3/8=20]!<(! c2-[Q:3/8=25] (3c/[Q:3/8=40]!tenuto!c/(!tenuto!c/[Q:3/8=20] a2-) a/!<)!!mp! a/[Q:3/8=35][Q:3/8=40] | %7
!>(! g2- g/ g/[Q:3/8=20] f2-[Q:3/8=25] (3f/[Q:3/8=40]!tenuto!f/"^ten."!tenuto!f/!>)![Q:3/8=35] | %8
!pp! c'2- c'/ c'/ =c'2- c'/ c'/ | %9
 =c'2- c'/ c'/ b2-[Q:3/8=25] (3b/[Q:3/8=40]!tenuto!b/"^ten."!tenuto!b/ | b2- b/ b/ _b2- b/ b/ | %11
 _b2- b/ b/ =a2-[Q:3/8=25] (3a/[Q:3/8=40]!tenuto!a/"^ten."!tenuto!a/ | %12
"_cresc." a2- a/ a/ a2-[Q:3/8=25] (3a/[Q:3/8=40]=g/=f/ | %13
 =g2- g/ g/ g2-[Q:3/8=25] (3g/[Q:3/8=40]=f/=c/ || %14
[M:9/8]"^cresc."!mf!"^Poco Affrettando" _B2-!<(! B/ B/ _d2- d/!<)!!f! d/!>(! =c2- c/ c/!>)![Q:3/8=42] | %15
!<(! =B2- B/ B/ d2- d/!<)! d/!>(! c2- c/ c/!>)! | %16
!f! =c2-[Q:3/8=25] (3c/[Q:3/8=50]c/"_(l.h.)"c/[Q:3/8=40] =c'2-[Q:3/8=25] (3c'/[Q:3/8=50]c'/"_(l.h.)"c'/[Q:3/8=20]!8va(! =c''3[Q:3/8=55]!8va)![Q:3/8=45][Q:3/8=50] | %17
[Q:3/8=60][I:staff +1] (!>!_e/4_g/4_a/4[I:staff -1]!>!d/4=g/4=a/4!>(!=c'/4a/4g/4d/4[I:staff +1]_a/4_g/4 !>!e/4g/4a/4[I:staff -1]!>!d/4=g/4=a/4c'/4a/4g/4d/4[I:staff +1]_a/4_g/4[Q:3/8=40] (7:6:7e/4g/4a/4[I:staff -1]d/4[Q:3/8=30]=g/4=a/4c'/4[Q:3/8=25]"_rit." !tenuto!c'/[Q:3/8=15] !tenuto!c'/!tenuto!c'/)!>)! | %18
[Q:3/8=20]!p!"^a tempo" ^c'2-[Q:3/8=25] (3c'/[Q:3/8=50]c'/"_(l.h.)"c'/[Q:3/8=40]!8va(! c''2-[Q:3/8=25] (3c''/[Q:3/8=50]c''/"_(l.h.)"c''/[Q:3/8=20]!p! a''3[Q:3/8=55]!8va)![Q:3/8=50][Q:3/8=50] | %19
[I:staff +1] (5:4:5(=g/4a/4_b/4[I:staff -1]=b/4^d'/4(5:4:5e'/4=f'/4a'/4f'/4e'/4(5:4:5d'/4b/4!<(![I:staff +1]_b/4a/4g/4[I:staff -1] (5:4:5a/4=f/4e/4^d/4=B/4[I:staff +1](5:4:5_B/4A/4=G/4A/4B/4[I:staff -1](5:4:5=B/4d/4e/4f/4a/4!<)!!f![I:staff +1] .a/[I:staff -1].a/[I:staff +1].a/[Q:3/8=40][I:staff -1].a/[Q:3/8=30][I:staff +1].a/[Q:3/8=20][I:staff -1].a/) || %20
[M:6/8] z3/2[Q:3/8=50] x3/2 (8:6:8e/4[I:staff +1]=f/4=g/4^g/4[I:staff -1]a/4b/4c'/4d'/4(8:6:8e'/4[I:staff +1]=f'/4=g'/4^g'/4!8va(![I:staff -1]a'/4b'/4c''/4d''/4 | %21
[Q:3/8=45] !trill(!Te''6- | %22
 e''2- !trill)!e''/4^d''/4e''/4=f''/4 ^f''/4=g''/4f''/4=f''/4 e''/4^d''/4=d''/4c''/4 =c''/4b'/4_b'/4a'/4 | %23
 !trill(!Tg'6- | %24
 !trill)!g'/4a'/4g'/4=g'/4^g'/4a'/4_b'/4=b'/4=c''/4b'/4_b'/4a'/4"_rit." g'/4a'/4[Q:3/8=40]g'/4a'/4 g'/4a'/4[Q:3/8=20]g'/4!tenuto!g'/4[Q:3/8=15] (3!tenuto!g'/[Q:3/8=10]!tenuto!g'/[Q:3/8=5]!tenuto!g'/ || %25
"^Tempo I (Allegretto)"[Q:3/8=15]!pp! g'2- g'/ g'/ g'2- g'/ g'/[Q:3/8=40] | %26
 g'2-[Q:3/8=25] (3g'/[Q:3/8=40](f'/g'/ f'2-) f'/ c'/ | e'2- e'/ e'/ e'2- e'/ e'/ | %28
 e'2-[Q:3/8=25] (3e'/[Q:3/8=40](c'/e'/ c'2-) c'/ g/ | c'2- c'/ (c'/ f'2-) f'/ (f'/ | %30
 c'2-) c'/ (c'/ e'2-) e'/ e'/ | %31
 c'2-[Q:3/8=25] (3c'/[Q:3/8=40]!tenuto!c'/!tenuto!c'/!pp![Q:3/8=25] [aa'-] a'3/2!8va)![Q:3/8=25] (g/[Q:3/8=15][Q:3/8=10][Q:3/8=5] | %32
[Q:3/8=40]"^a tempo primo ma poco animato" b/g/a/"_cresc."e'/c'/=c'/ b/^a/^e/g/[Q:3/8=30]f/[Q:3/8=25]A/) | %33
[Q:3/8=25]!f! c2-[Q:3/8=25] (3c/!tenuto!c/(!tenuto!c/- [cc']>)!<(![dd'][Q:3/8=35][ee']/[=f=f']/!<)![Q:3/8=40][Q:3/8=30] | %34
[Q:3/8=40] ([=g=g']/[Q:3/8=50]!<(!^c'/e'/a'/g'/=c''/"_accel." =b'/!<)![Q:3/8=60]_b'/^f'/[Q:3/8=70]a'/_a'/g'/ | %35
[Q:3/8=80] ^d'/e'/=c'/^c'/a/=c'/ b/_b/a/^f/a/[Q:3/8=40]^g/) | %36
[Q:3/8=25]!f!"^a tempo - piu animato" g2- g/ g/ g2-[Q:3/8=25] (3g/[Q:3/8=45]f/e/[Q:3/8=45] | %37
 f2- f/ f/ f2- (3f/e/B/ ||[M:9/8] A2-!<(! A/ A/ =c2- c/!<)! c/!>(! B2- B/ B/!>)! | %39
!<(! _B2- B/ B/ _d2- d/!<)! _d/!>(! =c2- c/ c/!>)! ||[M:6/8]!<(! B2- B/ B/ d2- d/ d/!<)! | %41
!f!"^allarg." ^d2-!>(! d/[Q:3/8=40] d/[Q:3/8=35] f2-[Q:3/8=20] f/ f/!>)![Q:3/8=30] | %42
!p![Q:3/8=15]"^a tempo" (a3[Q:3/8=40] a'2[Q:3/8=30][Q:3/8=25] A/[Q:3/8=20]a/) | %43
[Q:3/8=20]"_molto rit."!<(! e'3-[Q:3/8=30][Q:3/8=40]!<)![Q:3/8=35]!>(! e'>[Q:3/8=30]e'[Q:3/8=20]^d'/[Q:3/8=10]=d'/!>)! | %44
!pp![Q:3/8=20]"_dolce""^meno mosso e tranquillo" c'2- c'/c'/ c'2- c'/c'/ | %45
 c'2-[Q:3/8=15] (3c'/(^d'/f'/"_rit."!>(! (d'2-) d'/[Q:3/8=5]!fermata!c'/)!>)! || %46
"^Tempo I (Allegretto moderato)"[Q:3/8=15]!p! ^g2- g/ g/ g2- g/ g/[Q:3/8=40] | %47
 g2-[Q:3/8=25] (3g/[Q:3/8=40](f/g/ f2-) f/ (c/ | e2-) e/ e/ e2- e/ e/ || %49
[M:9/8] e2-[Q:3/8=25] (3e/[Q:3/8=40](c/e/ c2-) c/ c/[Q:3/8=35] G2-"^rit."[Q:3/8=10] G/4[Q:3/8=15]!tenuto!G/4!tenuto!G/4[Q:3/8=5]!tenuto!G/4[Q:3/8=20] || %50
[M:6/8][Q:3/8=25]"^a tempo"{/G} (g6[Q:3/8=45] | %51
[Q:3/8=50][I:staff +1] (9:6:9(A,/-E/-B/-[I:staff -1]F/c/g/)!8va(!f/c'/g'/ (3f'/-c''/-g''/-)!8va)! x x | %52
!pp![I:staff +1] (3(A/B/d/"_delicatissimo"[I:staff -1]=f/4^g/4c'/4e'/4"^(l.h.)" [=f'a']-) x2 x | %53
 (3(e/c/G/C/4[I:staff +1]F/4A,/4E,/4)[I:staff -1] x !fermata!z2 z |] %54
V:2
!ped![I:staff -1] (8:4:8(g/c/F/[I:staff +1]B/A/E/A/B/[I:staff -1](2:1:2F/c/g/) (8:4:8(g/c/F/[I:staff +1]B/A/^D/A/B/[I:staff -1](2:1:2F/c/g/)!ped-up! | %1
!ped! (8:4:8(g/c/F/[I:staff +1]^A/G/=D/G/A/[I:staff -1](6:2:4(1:1:2F/c/f/g/) (8:4:8(f/c/F/[I:staff +1]A/G/D/G/A/[I:staff -1]F/c/)!ped-up! | %2
!ped! (8:4:8(e/=A/D/[I:staff +1]G/F/C/F/G/[I:staff -1](2:1:2D/A/e/) (8:4:8(e/A/D/[I:staff +1]G/F/=C/F/G/[I:staff -1](2:1:2D/A/e/)!ped-up! | %3
!ped! (8:4:8(e/G/D/[I:staff +1]F/E/B,/E/F/[I:staff -1](6:2:4(1:1:2D/G/c/e/) (8:4:8(c/G/D/[I:staff +1]F/E/_B,/E/F/[I:staff -1]D/G/)!ped-up! | %4
[I:staff +1][K:bass]!ped![I:staff -1] (8:4:8(c/G/C/[I:staff +1]E/=B,/A,/B,/E/[I:staff -1](2:1:2C/G/c/) (8:4:8(f/c/F/[I:staff +1]E/A,/D,/A,/E/[I:staff -1](2:1:2F/c/f/)!ped-up! | %5
!ped! (8:4:8(c/G/C/[I:staff +1]B,/E,/A,,/E,/B,/[I:staff -1](2:1:2C/G/c/) (8:4:8(e/B/E/[I:staff +1]B,/C,/=G,,/C,/B,/[I:staff -1](2:1:2E/B/e/)!ped-up! | %6
!ped! (8:4:8(c/G/C/[I:staff +1]A,/E,/F,,/E,/A,/[I:staff -1](6:2:4(1:1:2C/G/c/)[I:staff +1] x/[I:staff -1] (8:4:8(a/c/F/[I:staff +1]D/A,/B,,/A,/D/[I:staff -1](2:1:2F/c/a/)!ped-up! | %7
!ped! (8:4:8(g/c/G/[I:staff +1]E/B,/C,/B,/E/[I:staff -1](2:1:2G/c/g/) (8:4:8(f/c/F/[I:staff +1]E/A,/D,/A,/E/[I:staff -1](6:2:4(1:1:2F/c/f/)[I:staff +1] x/!ped-up! | %8
[K:treble]!ped![I:staff -1] (8:4:8(c'/f/c/[I:staff +1]d/A/B,/A/d/[I:staff -1](2:1:2c/f/c'/) (8:4:8(=c'/=g/=c/[I:staff +1]_e/A/D/A/e/[I:staff -1](2:1:2c/g/c'/)!ped-up! | %9
!ped! (8:4:8(=c'/_g/=c/[I:staff +1]_e/_B/=F/B/e/[I:staff -1](2:1:2c/g/c'/) (8:4:8(b/^f/=B/[I:staff +1]^d/A/=G/A/d/[I:staff -1](6:2:4(1:1:2B/f/b/)[I:staff +1] x/!ped-up! | %10
!ped![I:staff -1] (8:4:8(b/e/B/[I:staff +1]=c/=G/A,/G/c/[I:staff -1](2:1:2B/e/b/) (8:4:8(_b/=f/_B/[I:staff +1]_d/G/=C/G/d/[I:staff -1](2:1:2B/f/b/)!ped-up! | %11
!ped! (8:4:8(_b/_f/_B/[I:staff +1]_d/_A/_E/A/d/[I:staff -1](2:1:2B/f/b/) (8:4:8(a/=e/=A/[I:staff +1]^c/=G/=F/G/c/[I:staff -1](6:2:4(1:1:2A/e/a/)[I:staff +1] x/!ped-up! | %12
!ped![I:staff -1] (8:4:8(a/=d/A/[I:staff +1]_B/=F/=G,/F/B/[I:staff -1](2:1:2A/d/a/)[I:staff +1][K:bass][I:staff -1] (8:4:8(a/d/=G/[I:staff +1]_E/_B,/=C,/B,/E/[I:staff -1](6:2:4(1:1:2G/d/=g/=f/)!ped-up! | %13
!ped! (8:4:8(=g/=c/=G/[I:staff +1]_A/_E/=F,/E/A/[I:staff -1](2:1:2G/c/g/) (8:4:8(g/c/=F/[I:staff +1]C/G,/_B,,/G,/C/[I:staff -1](6:2:4(1:1:2F/c/=f/c/)!ped-up! || %14
[M:9/8]!ped! (8:4:8(_B/=F/_B,/[I:staff +1]_D/=G,/=C,/G,/D/[I:staff -1](2:1:2B,/F/B/) (8:4:8(_d/_A/_D/[I:staff +1]=E/_B,/C,/B,/E/[I:staff -1](2:1:2D/A/d/) (8:4:8(=c/=G/=C/[I:staff +1]_E/A,/C,/A,/E/[I:staff -1](2:1:2C/G/c/)!ped-up! | %15
!ped! (8:4:8(B/^F/B,/[I:staff +1]D/G,/^C,/G,/D/[I:staff -1](2:1:2B,/F/B/) (8:4:8(d/A/D/[I:staff +1]^E/B,/C,/B,/E/[I:staff -1](2:1:2D/A/d/) (8:4:8(c/G/C/[I:staff +1]=E/^A,/C,/A,/E/[I:staff -1](2:1:2C/G/c/)!ped-up! | %16
!ped! (8:4:8(=c/=G/=C/[I:staff +1]_E/=A,/D,/A,/E/[I:staff -1](6:2:4(1:1:2C/G/c/) c/[I:staff +1][K:treble][I:staff -1] (8:4:8(=c'/=g/c/[I:staff +1]_e/A/D/A/e/[I:staff -1](6:2:4(1:1:2c/g/c'/) c'/!ped-up!!ped![I:staff +1] x3 | %17
 x9!ped-up! | %18
!ped![I:staff -1] (8:4:8(c'/f/B/[I:staff +1]d/^G/C/G/d/[I:staff -1](6:2:4(1:1:2B/f/c'/) c'/!8va(! (8:4:8(c''/f'/b/!8va)![I:staff +1]d'/g/c/g/d'/!8va(![I:staff -1](6:2:4(1:1:2b/f'/c''/) c''/!ped-up!!8va)!!ped![I:staff +1] x3 | %19
 x9!ped-up! || %20
[M:6/8]!f!!ped! z3/2!p! (7:6:7=F/4=G/4^G/4[I:staff -1]A/4B/4c/4d/4[I:staff +1] x3/2 x3/2 | %21
 z2 z z!pp!!8va(! [^d'g'^b'][e'a'^c''] | [c'f'^a']3!8va)! z2 z!ped-up! | %23
!ped! z!8va(! [=g=c'e'] z [_a_d'=f']3 | [=f_bd']3- [fbd']!8va)! z z!ped-up! || %25
!8va(!!ped![I:staff -1] (8:4:8(g'/c'/f/!8va)![I:staff +1]b/a/e/a/b/!8va(![I:staff -1](2:1:2f/c'/g'/) (8:4:8(g'/c'/f/!8va)![I:staff +1]b/a/^d/a/b/!8va(![I:staff -1](2:1:2f/c'/g'/)!ped-up!!8va)! | %26
!8va(!!ped! (8:4:8(g'/c'/f/!8va)![I:staff +1]^a/g/=d/g/a/!8va(![I:staff -1](6:2:4(1:1:2f/c'/f'/g'/) (8:4:8(f'/c'/f/!8va)![I:staff +1]a/g/d/g/a/!8va(![I:staff -1]f/c'/)!ped-up!!8va)! | %27
!8va(!!ped! (8:4:8(e'/=a/d/!8va)![I:staff +1]g/f/c/f/g/!8va(![I:staff -1](2:1:2d/a/e'/) (8:4:8(e'/a/d/!8va)![I:staff +1]g/f/=c/f/g/!8va(![I:staff -1](2:1:2d/a/e'/)!ped-up!!8va)! | %28
!8va(!!ped! (8:4:8(e'/g/d/!8va)![I:staff +1]f/e/B/e/f/!8va(![I:staff -1](6:2:4(1:1:2d/g/c'/e'/) (8:4:8(c'/g/d/!8va)![I:staff +1]f/e/_B/e/f/!8va(![I:staff -1]d/g/)!ped-up!!8va)! | %29
!8va(!!ped! (8:4:8(c'/g/c/!8va)![I:staff +1]e/B/=A/B/e/!8va(![I:staff -1](2:1:2c/g/c'/) (8:4:8(f'/c'/f/!8va)![I:staff +1]e/A/D/A/e/!8va(![I:staff -1](2:1:2f/c'/f'/)!ped-up!!8va)! | %30
!8va(!!ped! (8:4:8(c'/g/c/!8va)![I:staff +1]B/E/A,/E/B/!8va(![I:staff -1](2:1:2c/g/c'/) (8:4:8(e'/b/e/!8va)![I:staff +1]B/C/=G,/C/B/!8va(![I:staff -1](2:1:2e/b/e'/)!ped-up!!8va)! | %31
!8va(!!ped! (8:4:8(c'/g/c/!8va)![I:staff +1]A/E/F,/E/A/!8va(![I:staff -1](6:2:4(1:1:2c/g/c'/)[I:staff +1] x/!ped-up![K:bass]!ped![I:staff -1] (8:4:8(a/c'/f/!8va)![I:staff +1]D/A,/B,,/-A,/-D/-[I:staff -1](2:1:2(F/(!fermata!c/)g/)) | %32
[I:staff +1] x2 x4!ped-up! | %33
!ped![I:staff -1] (8:4:8(c/G/C/[I:staff +1]A,/E,/F,,/E,/A,/[I:staff -1](6:2:4(1:1:2C/G/c/)[I:staff +1] x/!ped-up!!ped! (3z/ (=F,,/D,/(3=F,/=G,/_B,/(3D/=F/_B/ | %34
[K:treble] d/=F/_B/d/=f/_b/ d'/_d'/=c'/=b/_b/a/ | _a/=g/_g/=f/e/_e/ d/_d/=c/=B/_B/A/)!ped-up! | %36
[K:bass]!ped![I:staff -1] (8:4:8(g/c/G/[I:staff +1]A/E/F,/E/A/[I:staff -1](2:1:2G/c/g/) (8:4:8(g/c/F/[I:staff +1]D/A,/B,,/A,/D/[I:staff -1](6:2:4(1:1:2F/c/f/e/)!ped-up! | %37
!ped! (8:4:8(f/B/F/[I:staff +1]=G/D/E,/D/G/[I:staff -1](2:1:2F/B/f/) (8:4:8f/B/E/[I:staff +1]=C/=G,/A,,/G,/C/[I:staff -1](3f/e/B/!ped-up! || %38
[M:9/8]!ped! (8:4:8(A/E/A,/[I:staff +1]=C/F,/B,,/F,/C/[I:staff -1](2:1:2A,/E/A/) (8:4:8(=c/=G/=C/[I:staff +1]^D/A,/B,,/A,/D/[I:staff -1](2:1:2C/G/c/) (8:4:8(B/F/B,/[I:staff +1]=D/G,/B,,/G,/D/[I:staff -1](2:1:2B,/F/B/)!ped-up! | %39
!ped! (8:4:8(_B/=F/_B,/[I:staff +1]_D/=G,/=C,/G,/D/[I:staff -1](2:1:2B,/F/B/) (8:4:8(_d/_A/D/[I:staff +1]=E/_B,/C,/B,/E/[I:staff -1](2:1:2D/A/_d/) (8:4:8(=c/=G/=C/[I:staff +1]_E/A,/C,/A,/E/[I:staff -1](2:1:2C/G/c/)!ped-up! || %40
[M:6/8]!ped! (8:4:8(B/^F/B,/[I:staff +1]D/^G,/^C,/G,/D/[I:staff -1](2:1:2B,/F/B/) (8:4:8(d/A/D/[I:staff +1]^E/B,/C,/B,/E/[I:staff -1](2:1:2D/A/d/)!ped-up! | %41
!ped! (8:4:8(^d/G/^D/[I:staff +1]=E/^A,/C,/A,/E/[I:staff -1](2:1:2D/G/"^dim."d/) (8:4:8(f/B/F/[I:staff +1]=G/=D/C,/D/G/[I:staff -1](2:1:2F/B/f/)!ped-up! | %42
[I:staff +1][K:treble]!ped! x6!ped-up! | %43
[K:bass]!ped! z/ (C,,/B,,/D,/^E,/G,/[K:treble] B,/D/^E/G/B/d/)!ped-up! | %44
 z !tenuto![cd]2 z !tenuto![^Bc]2 | z [^A^B=e]2- [ABe]3 || %46
!ped![I:staff -1] (8:4:8(g/c/F/[I:staff +1]B/E/A,/E/B/[I:staff -1](2:1:2F/c/g/)[I:staff +1][K:bass][I:staff -1] (8:4:8(g/c/F/[I:staff +1]A/^D/=F,/D/A/[I:staff -1](2:1:2F/c/g/)!ped-up! | %47
!ped! (8:4:8(g/c/F/[I:staff +1]E/_B,/=C,/B,/E/[I:staff -1](6:2:4(1:1:2F/c/f/g/) (8:4:8(f/=B/E/[I:staff +1]D/_A,/_B,,/A,/D/[I:staff -1](2:1:2E/B/c/)!ped-up! | %48
!ped! (8:4:8(e/=A/D/[I:staff +1]^B,/F,/G,,/F,/B,/[I:staff -1](2:1:2D/A/e/) (8:4:8(e/G/C/[I:staff +1]=B,/=F,/=G,,/F,/B,/[I:staff -1](2:1:2C/G/e/)!ped-up! || %49
[M:9/8]!ped! (8:4:8(e/=G/=C/[I:staff +1]^A,/E,/^F,,/E,/A,/[I:staff -1](6:2:4(1:1:2C/G/c/e/)!ped-up!!ped! (8:4:8(c/^F/B,/[I:staff +1]=A,/_E,/=F,,/E,/A,/[I:staff -1](2:1:2B,/F/c/)!ped-up!!ped! (8:4:8^G/^B,/^F,/[I:staff +1]D,/_B,,/E,,/B,,/D,/[I:staff -1](4:1:2(1:1:2F,/B,/G/[I:staff +1] x/4!ped-up! || %50
[M:6/8]!ped![I:staff -1](8:6:8(x/c/F/G/C/F,/[I:staff +1]B,/E,/ (3A,,/E,/B,/[I:staff -1](3F,/C/G/(3F/c/g/) | %51
[I:staff +1][K:treble] x x x2 z z!ped-up! |!ped! x3 z2 z!ped-up! | %53
[K:bass]!ped! x2"_(r.h.)" [A,,,E,,]- z2 z!ped-up! |] %54
V:3
 x6 | x6 | x6 | x6 | x6 | x6 | x6 | x6 | x6 | x6 | x6 | x6 | x6 | x6 ||[M:9/8] x9 | x9 | %16
 x6!8va(! (9:8:9(=c''/4a'/4=g'/4d'/4!8va)![I:staff +1]_a'/4_g'/4_e'/4[I:staff -1]=c'/4=a/4=g/4d/4[I:staff +1]_a/4_g/4) | %17
 x9 | %18
 x3!8va(! x3[I:staff -1] (5:4:5a''/4"^veloce"(=f''/4e''/4^d''/4=b'/4!8va)![I:staff +1](5:4:5_b'/4a'/4=g'/4[I:staff -1]a'/4=f'/4(5:4:5e'/4^d'/4=b/4[I:staff +1]_b/4a/4) | %19
 x9 ||[M:6/8] x21/4!8va(! x3/4 |[I:staff -1] x6 | x6 | x6 | x6 || x6 | x6 | x6 | x6 | x6 | x6 | %31
 x11/2!8va)! x/ | x6 | x6 | x6 | x6 | x6 | x6 ||[M:9/8] x9 | x9 ||[M:6/8] x6 | x6 | %42
 (9:8:9a/4d/4A/4[I:staff +1]_B/4=F/4B/4[I:staff -1]A/4d/4a/4[I:staff +1]=f/4_b/4[I:staff -1]a/4d'/4 (5:4:5a'/4d'/4a/4[I:staff +1]b/4f/4"^rall."[I:staff -1](6:4:6a/4d/4A/4[I:staff +1]B/4F/4B/4[I:staff -1]A/a/ | %43
{/e-} (e/=g/^g/b/^a/!mp!=a/ d'/c'/^b/e'/ x) | z !tenuto![fa]2 z !tenuto![^eg]2 | z =g2- g3 || x6 | %47
 x6 | x6 ||[M:9/8] x9 ||[M:6/8] x6 | x2!8va(! x2!8va)! z z | x3 z2 z | x6 |] %54
V:4
 x6 | x6 | x6 | x6 |[K:bass] x6 | x6 | x6 | x6 |[K:treble] x6 | x6 | x6 | x6 | x3[K:bass] x3 | %13
 x6 ||[M:9/8] x9 | x9 | x3[K:treble] x6 | x9 | x3!8va(! x3/4!8va)! x5/4!8va(! x!8va)! x3 | x9 || %20
[M:6/8] C6 | x4!8va(! x2 | x3!8va)! x3 | x!8va(! x5 | x4!8va)! x2 || %25
!8va(! x3/4!8va)! x5/4!8va(! x7/4!8va)! x5/4!8va(! x!8va)! | %26
!8va(! x3/4!8va)! x5/4!8va(! x7/4!8va)! x5/4!8va(! x!8va)! | %27
!8va(! x3/4!8va)! x5/4!8va(! x7/4!8va)! x5/4!8va(! x!8va)! | %28
!8va(! x3/4!8va)! x5/4!8va(! x7/4!8va)! x5/4!8va(! x!8va)! | %29
!8va(! x3/4!8va)! x5/4!8va(! x7/4!8va)! x5/4!8va(! x!8va)! | %30
!8va(! x3/4!8va)! x5/4!8va(! x7/4!8va)! x5/4!8va(! x!8va)! | %31
!8va(! x3/4!8va)! x5/4!8va(! x[K:bass] x3/4!8va)! x9/4 | x6 | x6 |[K:treble] x6 | x6 |[K:bass] x6 | %37
 x6 ||[M:9/8] x9 | x9 ||[M:6/8] x6 | x6 |[K:treble] x6 |[K:bass] x3[K:treble] x3 | x6 | x6 || %46
 x3[K:bass] x3 | x6 | x6 ||[M:9/8] x9 ||[M:6/8] x6 |[K:treble] x6 | x6 | %53
[K:bass] x3 !fermata!x x2 |] %54

